exported-svg/tv.svg

<svg height="24" viewBox="0 0 24 24" width="24" xmlns="http://www.w3.org/2000/svg"><path d="m11.2928932 7-4.14644659-4.14644661c-.19526215-.19526215-.19526215-.51184463 0-.70710678s.51184463-.19526215.70710678 0l4.64644661 4.64644661 4.6464466-4.64644661c.1952622-.19526215.5118446-.19526215.7071068 0 .1952621.19526215.1952621.51184463 0 .70710678l-4.1464466 4.14644661h6.7928932c1.3807119 0 2.5 1.11928813 2.5 2.5v11c0 1.3807119-1.1192881 2.5-2.5 2.5h-16c-1.38071187 0-2.5-1.1192881-2.5-2.5v-11c0-1.38071187 1.11928813-2.5 2.5-2.5zm-6.7928932 1c-.82842712 0-1.5.67157288-1.5 1.5v11c0 .8284271.67157288 1.5 1.5 1.5h16c.8284271 0 1.5-.6715729 1.5-1.5v-11c0-.82842712-.6715729-1.5-1.5-1.5z"/></svg>

<?xml version="1.0" encoding="UTF-8"?>
<svg width="24px" height="24px" viewBox="0 0 24 24" version="1.1" xmlns="http://www.w3.org/2000/svg" xmlns:xlink="http://www.w3.org/1999/xlink">
    <!-- Generator: Sketch 55.2 (78181) - https://sketchapp.com -->
    <title>tv</title>
    <desc>Created with Sketch.</desc>
    <g id="tv" stroke="none" stroke-width="1" fill="none" fill-rule="evenodd">
        <path d="M11.2928932,7 L7.14644661,2.85355339 C6.95118446,2.65829124 6.95118446,2.34170876 7.14644661,2.14644661 C7.34170876,1.95118446 7.65829124,1.95118446 7.85355339,2.14644661 L12.5,6.79289322 L17.1464466,2.14644661 C17.3417088,1.95118446 17.6582912,1.95118446 17.8535534,2.14644661 C18.0488155,2.34170876 18.0488155,2.65829124 17.8535534,2.85355339 L13.7071068,7 L20.5,7 C21.8807119,7 23,8.11928813 23,9.5 L23,20.5 C23,21.8807119 21.8807119,23 20.5,23 L4.5,23 C3.11928813,23 2,21.8807119 2,20.5 L2,9.5 C2,8.11928813 3.11928813,7 4.5,7 L11.2928932,7 Z M4.5,8 C3.67157288,8 3,8.67157288 3,9.5 L3,20.5 C3,21.3284271 3.67157288,22 4.5,22 L20.5,22 C21.3284271,22 22,21.3284271 22,20.5 L22,9.5 C22,8.67157288 21.3284271,8 20.5,8 L4.5,8 Z" id="Combined-Shape" fill="#000000" fill-rule="nonzero"></path>
    </g>
</svg>
